X:1
T:Title
%%score 1 { 2 | 3 }
L:1/8
Q:1/4=130
M:4/4
K:D
V:1 treble nm="Grand Piano, Staff 1"
V:2 bass nm="Choir Pad, Darlington, 10.11.10.11"
V:3 bass 
V:1
 [A,D]4 [A,D]4 | [A,C]2 [A,D]2 [CE]4 | [CE]2 [CE]2 [CE]4 | D2 [CE]2 [DF]4 | [DF]4 [Fe]4 | %5
w: By~Anonymous *|||||
 [Fc]2 [FB]2 [FB]4 | F2 [F^G]2 [FA]4 | [FA]2 [=F^G]2 ^F4 | [^DF]4 [FA]4 | [EG]2 [^DF]2 [EG]4 | %10
w: |||||
 [FB]2 [FB]2 [=FB]4 | [FA]2 [=F^G]2 [^FA]4 | [GA]4 [Ff]4 | [Ae]2 [Ad]2 [Fd]4 | %14
w: ||||
 [Gc]2 [GB]2 [FA]2 [DF]2 | [DF]2 [CE]2 D4- | D4 z4 |] %17
w: |||
V:2
 F,4 F,4 | G,2 F,2 A,4 | A,2 A,2 A,4 | A,2 A,2 A,4 | A,4 B,4 | D2 D2 D4 | B,2 B,2 C4 | %7
 C2 C2[K:bass] A,4 | B,4 B,4 | B,2 B,2 B,4 | B,2 B,2[K:treble] C4 | C2 C2 C4 | C4 D4 | D2 D2 D4 | %14
 D2 D2[K:bass] D4 | A,2 G,2 F,4- | F,4 z4 |] %17
V:3
 D,4 z4 | E,2 D,2 A,,4 | A,,2 A,,2 G,4 | F,2 E,2 D,4 | D,2 C,2 B,,4 | B,,2 B,,2 B,4 | D,2 D,2 C,4 | %7
 C,2 C,2 F,,4 | B,,4 B,,4 | B,,2 B,,2 E,4 | D,2 D,2 C,4 | C,2 C,2 F,4 | E,4 D,4 | F,2 F,2 B,4 | %14
 G,2 G,2 A,4 | A,,2 A,,2 D,4- | D,4 z4 |] %17

